X: 171
T: No_93_War_Song.krn
%%abc-version 2.0
%%abcx-abcm2ps-target-version 5.9.1 (29 Sep 2008)
%%abc-creator hum2abc beta
%%abcx-conversion-date 2020/08/10 18:54:57
%%gracespace 0 6 6
%%humdrum-veritas 3034296632
%%humdrum-veritas-data 2354993303
%%linebreak <none>
%%barnumbers 0
L: 1/8
M: 3/4
%%staves {1 2}
V: 1 clef=bass
V: 2 clef=bass
K: A
[V:1] [K:clef=bass][M:3/4]E>EE2(3CB,A, ||  
[V:2] [K:clef=bass][M:3/4](3!accent!G,, z G,, (3!accent!G,, z G,, (3!accent!G,, z G,, ||  
[V:1] [M:2/4]B,>D (3CB,A, ||  
[V:2] [M:2/4]z4 ||  
[V:1] [M:3/4]A,>A,A,7/A,/ | 
[V:2] [M:3/4]z6 | 
[V:1] A,6 | 
[V:2] z6 | 
[V:1] E>EE2(3CB,A, ||  
[V:2] z6 ||  
[V:1] [M:2/4]B,>D (3CB,A, ||  
[V:2] [M:2/4]z4 ||  
[V:1] [M:3/4]A,>A,A,7/A,/ | 
[V:2] [M:3/4]z6 | 
[V:1] A,6 ]|:  
[V:2] z6 ]|:  
[V:1] B,>B, B,<B, A,3/=G,/ ||  
[V:2] z6 ||  
[V:1] [M:2/4]A,>A, A,/A,3/ | 
[V:2] [M:2/4]z4 | 
[V:1] F,>E,E,2 | 
[V:2] z4 | 
[V:1] A,>B, A,/A,3/ | 
[V:2] z4 | 
[V:1] F,>E, E,3/D,/ | 
[V:2] z4 | 
[V:1] E,>E,E,2 ||  
[V:2] z4 ||  
[V:1] [M:3/4](3C,B,,A,, (3C,B,,A,, (3C,B,,A,, | 
[V:2] [M:3/4]z6 | 
[V:1] A,,2A,,3A,, | 
[V:2] z6 | 
[V:1] A,,4A,,2 :|]  
[V:2] z6 :|]  


